X: 19485
T: Jackson's Over The Water
R: jig
M: 6/8
K: Gmajor
B/A/|GEE GEE|A>BA AGA|B>cB BAG|A>BA AGA|
B2 c BAG|dBd efg|dBG BAG|A3 A2:|
|:a|gee aff|gee dBB|gee aff|ged e2 a|
gee baa|gee efg|dBB BAG|A3 A2:|

